X: 6
T: Petronella
R: reel
M: 4/4
L: 1/8
K: Dmaj
|: AG | F2 AF E2 AF | D2 D2 D2 FA | d2 cd e2 d2 | cdec ABAG |
F2 AF E2 AF | D2 D2 D2 FA | d2 cd e2 c2 | d4 d2 :|
|: dA | F2 fd A2 af | g2 gf efed | cdec Aceg | f2 fd AdAF |
d2 fd A2 af | g2 gf efed | cdec Agec | d2 d2 d2 :|


Tune 1083	Setting 14317

